assets/icons/svg/hq-line.svg

<svg width="24" height="24" viewBox="0 0 24 24" fill="none" xmlns="http://www.w3.org/2000/svg">
<path d="M4 5V19H20V5H4ZM3 3H21C21.2652 3 21.5196 3.10536 21.7071 3.29289C21.8946 3.48043 22 3.73478 22 4V20C22 20.2652 21.8946 20.5196 21.7071 20.7071C21.5196 20.8946 21.2652 21 21 21H3C2.73478 21 2.48043 20.8946 2.29289 20.7071C2.10536 20.5196 2 20.2652 2 20V4C2 3.73478 2.10536 3.48043 2.29289 3.29289C2.48043 3.10536 2.73478 3 3 3ZM7.5 11.25H9.5V9H11V15H9.5V12.75H7.5V15H6V9H7.5V11.25ZM16.25 15V16.5H14.75V15H14C13.7348 15 13.4804 14.8946 13.2929 14.7071C13.1054 14.5196 13 14.2652 13 14V10C13 9.73478 13.1054 9.48043 13.2929 9.29289C13.4804 9.10536 13.7348 9 14 9H17C17.2652 9 17.5196 9.10536 17.7071 9.29289C17.8946 9.48043 18 9.73478 18 10V14C18 14.2652 17.8946 14.5196 17.7071 14.7071C17.5196 14.8946 17.2652 15 17 15H16.25ZM14.5 10.5V13.5H16.5V10.5H14.5Z" fill="black"/>
</svg>

<svg xmlns="http://www.w3.org/2000/svg" viewBox="0 0 24 24" width="240" height="240"><path fill="none" d="M0 0h24v24H0z"/><path d="M4 5v14h16V5H4zM3 3h18a1 1 0 0 1 1 1v16a1 1 0 0 1-1 1H3a1 1 0 0 1-1-1V4a1 1 0 0 1 1-1zm4.5 8.25h2V9H11v6H9.5v-2.25h-2V15H6V9h1.5v2.25zM16.25 15v1.5h-1.5V15H14a1 1 0 0 1-1-1v-4a1 1 0 0 1 1-1h3a1 1 0 0 1 1 1v4a1 1 0 0 1-1 1h-.75zm-1.75-4.5v3h2v-3h-2z" fill="#000"/></svg>
